haul-fe/src/assets/svgs/Truck_Selected.svg

<svg xmlns="http://www.w3.org/2000/svg" width="42" height="30" viewBox="0 0 42 24" fill="#000B49">
<path d="M36.0448 4.63526H29.0031V0.5H4.69727V3.92517H6.39816V2.17081H27.3022V8.93761H29.0031V6.29772H32.5069V12.1038H40.2205V14.5348H38.8173V16.2056H40.2205V18.6534H38.1879C37.8052 17.0661 36.3425 15.8715 34.6076 15.8715C32.8726 15.8715 31.4184 17.0661 31.0357 18.6534H29.0031V10.6168H27.3022V18.6534H17.1053C16.7226 17.0661 15.2598 15.8715 13.5249 15.8715C11.79 15.8715 10.3357 17.0661 9.95304 18.6534H6.39816V15.6292H4.69727V20.3242H9.94453C10.3272 21.9115 11.79 23.1061 13.5249 23.1061C15.2598 23.1061 16.7226 21.9198 17.1053 20.3242H31.0357C31.4184 21.9115 32.8811 23.1061 34.6161 23.1061C36.351 23.1061 37.8137 21.9198 38.1964 20.3242H41.9214V10.9509L36.0448 4.63526ZM34.2078 10.4413V6.30608H35.2879L39.1404 10.4413H34.2078ZM13.5249 21.4353C12.4363 21.4353 11.5434 20.5665 11.5434 19.4888C11.5434 18.4195 12.4278 17.5423 13.5249 17.5423C14.622 17.5423 15.5065 18.4111 15.5065 19.4888C15.5065 20.5581 14.622 21.4353 13.5249 21.4353ZM34.6161 21.4353C33.5275 21.4353 32.6345 20.5665 32.6345 19.4888C32.6345 18.4195 33.519 17.5423 34.6161 17.5423C35.7046 17.5423 36.5976 18.4111 36.5976 19.4888C36.5891 20.5581 35.7046 21.4353 34.6161 21.4353Z" />
<path d="M14.3757 18.6533H12.6748V20.3241H14.3757V18.6533Z" />
<path d="M35.4665 18.6533H33.7656V20.3241H35.4665V18.6533Z" />
<path d="M9.11142 8.9458H3.48145V10.6166H9.11142V8.9458Z" />
<path d="M1.78 8.9458H0.0791016V10.6166H1.78V8.9458Z" />
<path d="M13.7286 5.60449H8.09863V7.2753H13.7286V5.60449Z" />
<path d="M6.39816 5.60449H4.69727V7.2753H6.39816V5.60449Z" />
<path d="M13.7286 12.2876H8.09863V13.9584H13.7286V12.2876Z" />
<path d="M6.39816 12.2876H4.69727V13.9584H6.39816V12.2876Z" />
</svg>

<svg xmlns="http://www.w3.org/2000/svg" width="42" height="30" fill="#000B49" viewBox="0 0 42 24"><path d="M36.045 4.635h-7.042V.5H4.697v3.425h1.701V2.171h20.904v6.767h1.701v-2.64h3.504v5.806h7.714v2.43h-1.404v1.672h1.404v2.447h-2.033c-.383-1.587-1.846-2.781-3.58-2.781-1.735 0-3.19 1.194-3.572 2.781h-2.033v-8.036h-1.7v8.036H17.104c-.382-1.587-1.845-2.781-3.58-2.781s-3.19 1.194-3.572 2.781H6.398V15.63h-1.7v4.695h5.247c.382 1.587 1.845 2.782 3.58 2.782s3.198-1.186 3.58-2.782h13.93c.383 1.587 1.846 2.782 3.581 2.782 1.735 0 3.198-1.186 3.58-2.782h3.725v-9.373l-5.876-6.316zm-1.837 5.806V6.306h1.08l3.852 4.135h-4.932zM13.525 21.435c-1.089 0-1.982-.868-1.982-1.946 0-1.07.885-1.947 1.982-1.947s1.982.87 1.982 1.947c0 1.07-.885 1.946-1.982 1.946zm21.091 0c-1.088 0-1.981-.868-1.981-1.946 0-1.07.884-1.947 1.981-1.947 1.089 0 1.982.87 1.982 1.947a1.977 1.977 0 0 1-1.982 1.946z"/><path d="M14.376 18.653h-1.701v1.671h1.7v-1.67zm21.091 0h-1.701v1.671h1.7v-1.67zM9.111 8.946h-5.63v1.67h5.63v-1.67zm-7.331 0H.08v1.67h1.7v-1.67zm11.949-3.342h-5.63v1.671h5.63v-1.67zm-7.331 0h-1.7v1.671h1.7v-1.67zm7.331 6.684h-5.63v1.67h5.63v-1.67zm-7.331 0h-1.7v1.67h1.7v-1.67z"/></svg>
